common/svg/build-icon.svg

<svg fill="none" height="20" viewBox="0 0 20 20" width="20" xmlns="http://www.w3.org/2000/svg"><path clip-rule="evenodd" d="m10.0001.0230713 8.9614 4.4850187v10.98421l-8.9614 4.4846-8.96149-4.4846v-10.98421zm-7.11149 6.5531387v7.77319l6.18646 3.0959v-7.77587zm8.03649 3.09322v7.77587l6.1864-3.0959v-7.77319zm5.0439-4.5903-5.9689 2.98444-5.96892-2.98444 5.96892-2.9873z" fill="#000" fill-rule="evenodd"/></svg>

<svg width="20" height="20" viewBox="0 0 20 20" fill="none" xmlns="http://www.w3.org/2000/svg">
<path fill-rule="evenodd" clip-rule="evenodd" d="M10.0001 0.0230713L18.9615 4.50809V15.4923L10.0001 19.9769L1.03861 15.4923V4.50809L10.0001 0.0230713ZM2.88861 6.57621V14.3494L9.07507 17.4453V9.66943L2.88861 6.57621ZM10.9251 9.66943V17.4453L17.1115 14.3494V6.57621L10.9251 9.66943ZM15.969 5.07913L10.0001 8.06357L4.03118 5.07913L10.0001 2.09183L15.969 5.07913Z" fill="black"/>
</svg>
